images/icons/tw.svg

<svg width="22" height="16" viewBox="0 0 22 16" fill="none" xmlns="http://www.w3.org/2000/svg">
<path d="M22 1.88868C21.1934 2.21113 20.3183 2.4261 19.4087 2.52591C20.344 2.02687 21.0562 1.23608 21.3908 0.291746C20.5156 0.752398 19.5546 1.09021 18.525 1.27447C17.7012 0.491363 16.5257 0 15.2301 0C12.7418 0 10.7168 1.8119 10.7168 4.03839C10.7168 4.35317 10.7512 4.66027 10.837 4.95969C7.08736 4.79079 3.75819 3.18618 1.53588 0.737045C1.14977 1.33589 0.926676 2.02687 0.926676 2.77159C0.926676 4.16891 1.72465 5.40499 2.93448 6.13436C2.19657 6.11132 1.50156 5.92706 0.892355 5.62764V5.6737C0.892355 7.63148 2.4454 9.26679 4.51326 9.63532C4.13573 9.72745 3.73245 9.78119 3.32059 9.78119C3.02886 9.78119 2.74571 9.75816 2.47114 9.71209C3.04602 11.3167 4.71061 12.4837 6.68409 12.5144C5.13963 13.5969 3.19189 14.2418 1.08112 14.2418C0.720749 14.2418 0.360374 14.2265 0 14.1881C1.99922 15.3321 4.3674 16 6.91576 16C15.2215 16 19.7605 9.84261 19.7605 4.50672C19.7605 4.33013 19.7605 4.15355 19.752 3.98464C20.6357 3.40883 21.3994 2.7025 22 1.88868Z" fill="white"/>
</svg>

<svg width="22" height="16" fill="none" xmlns="http://www.w3.org/2000/svg"><path d="M22 1.889a9.9 9.9 0 0 1-2.591.637c.935-.5 1.647-1.29 1.982-2.234a9.877 9.877 0 0 1-2.866.982C17.701.491 16.525 0 15.23 0c-2.488 0-4.513 1.812-4.513 4.038 0 .315.034.622.12.922-3.75-.17-7.079-1.774-9.301-4.223a3.729 3.729 0 0 0-.61 2.035c0 1.397.799 2.633 2.008 3.362a4.985 4.985 0 0 1-2.042-.506v.046c0 1.957 1.553 3.593 3.621 3.961a5.05 5.05 0 0 1-2.042.077c.575 1.605 2.24 2.772 4.213 2.802-1.544 1.083-3.492 1.728-5.603 1.728-.36 0-.72-.016-1.081-.054C2 15.332 4.367 16 6.916 16 15.22 16 19.76 9.843 19.76 4.507c0-.177 0-.353-.009-.522A8.645 8.645 0 0 0 22 1.889Z" fill="#fff"/></svg>
